svg/system/thumb_up_line.svg

<?xml version="1.0" encoding="UTF-8"?>
<svg width="24px" height="24px" viewBox="0 0 24 24" version="1.1" xmlns="http://www.w3.org/2000/svg" xmlns:xlink="http://www.w3.org/1999/xlink">
    <title>thumb_up_line</title>
    <g id="页面-1" stroke="none" stroke-width="1" fill="none" fill-rule="evenodd">
        <g id="System" transform="translate(-528.000000, -96.000000)">
            <g id="thumb_up_line" transform="translate(528.000000, 96.000000)">
                 <path d="M24,0 L24,24 L0,24 L0,0 L24,0 Z M12.5934901,23.257841 L12.5819402,23.2595131 L12.5108777,23.2950439 L12.4918791,23.2987469 L12.4918791,23.2987469 L12.4767152,23.2950439 L12.4056548,23.2595131 C12.3958229,23.2563662 12.3870493,23.2590235 12.3821421,23.2649074 L12.3780323,23.275831 L12.360941,23.7031097 L12.3658947,23.7234994 L12.3769048,23.7357139 L12.4804777,23.8096931 L12.4953491,23.8136134 L12.4953491,23.8136134 L12.5071152,23.8096931 L12.6106902,23.7357139 L12.6232938,23.7196733 L12.6232938,23.7196733 L12.6266527,23.7031097 L12.609561,23.275831 C12.6075724,23.2657013 12.6010112,23.2592993 12.5934901,23.257841 L12.5934901,23.257841 Z M12.8583906,23.1452862 L12.8445485,23.1473072 L12.6598443,23.2396597 L12.6498822,23.2499052 L12.6498822,23.2499052 L12.6471943,23.2611114 L12.6650943,23.6906389 L12.6699349,23.7034178 L12.6699349,23.7034178 L12.678386,23.7104931 L12.8793402,23.8032389 C12.8914285,23.8068999 12.9022333,23.8029875 12.9078286,23.7952264 L12.9118235,23.7811639 L12.8776777,23.1665331 C12.8752882,23.1545897 12.8674102,23.1470016 12.8583906,23.1452862 L12.8583906,23.1452862 Z M12.1430473,23.1473072 C12.1332178,23.1423925 12.1221763,23.1452606 12.1156365,23.1525954 L12.1099173,23.1665331 L12.0757714,23.7811639 C12.0751323,23.7926639 12.0828099,23.8018602 12.0926481,23.8045676 L12.108256,23.8032389 L12.3092106,23.7104931 L12.3186497,23.7024347 L12.3186497,23.7024347 L12.3225043,23.6906389 L12.340401,23.2611114 L12.337245,23.2485176 L12.337245,23.2485176 L12.3277531,23.2396597 L12.1430473,23.1473072 Z" id="MingCute" fill-rule="nonzero"></path>
                <path d="M8.9929,5.16326 C9.16197,6.58609 8.93059,8.06959 8.41676,9.40186 C7.84825,10.8757 7.09175,12.4711 6.99818,14.0588 C6.91939,15.3959 7.22235,16.9777 8.03031,18.0606 C8.9152,19.2465 10.3675,20 11.9667,20 L13.4792,20 C16.0797,20 18.246,18.0067 18.462,15.4152 L18.823,11.083 C18.8716,10.5 18.4115,10 17.8264,10 L12.5,10 C11.6689,10 11.0047,9.32743 10.9985,8.50755 C10.9913,7.53778 11.0524,6.34084 10.6056,5.44721 C10.206,4.64792 9.83199,4.5 9.50003,4.5 C9.20032,4.5 8.9608,4.89307 8.9929,5.16326 Z M9.50003,2.5 C10.8556,2.5 11.7941,3.35208 12.3945,4.55279 C12.9168,5.59751 12.9661,6.85257 12.9915,8 L17.8264,8 C19.5815,8 20.9618,9.50008 20.8161,11.2491 L20.455,15.5813 C20.1527,19.2094 17.1199,22 13.4792,22 L11.9667,22 C9.99963,22 8.17139,21.1817 6.89975,19.8215 C6.45237,19.9382 5.98314,20.0001 5.5,20.0001 C4.39178,20.0001 3.47158,19.3791 2.87596,18.3917 C2.2969,17.4317 2,16.1066 2,14.5001 C2,12.8937 2.2969,11.5685 2.87596,10.6086 C3.47158,9.62116 4.39178,9.00012 5.5,9.00012 C5.78149,9.00012 6.07864,9.04963 6.37732,9.13358 C6.83483,7.93439 7.16111,6.69732 7.00687,5.39924 C6.83517,3.95421 8.01551,2.5 9.50003,2.5 Z M5.69583,11.0244 C5.21131,10.9241 4.83096,11.2397 4.5885,11.6416 C4.26275,12.1816 4,13.1064 4,14.5001 C4,15.8938 4.26275,16.8186 4.5885,17.3586 C4.89771,17.8712 5.22751,18.0001 5.5,18.0001 C5.56358,18.0001 5.62668,17.9985 5.68929,17.9952 C5.15387,16.7868 4.92419,15.2555 5.00164,13.9412 C5.04911,13.1357 5.36336,12.0232 5.69583,11.0244 Z" id="形状" fill="#09244B"></path>
            </g>
        </g>
    </g>
</svg>

<svg xmlns="http://www.w3.org/2000/svg" width="24" height="24"><g fill="none" fill-rule="evenodd"><path d="M24 0v24H0V0h24ZM12.593 23.258l-.011.002-.071.035-.02.004-.014-.004-.071-.035c-.01-.004-.019-.001-.024.005l-.004.01-.017.428.005.02.01.013.104.074.015.004.012-.004.104-.074.012-.016.004-.017-.017-.427c-.002-.01-.009-.017-.017-.018Zm.265-.113-.013.002-.185.093-.01.01-.003.011.018.43.005.012.008.007.201.093c.012.004.023 0 .029-.008l.004-.014-.034-.614c-.003-.012-.01-.02-.02-.022Zm-.715.002a.023.023 0 0 0-.027.006l-.006.014-.034.614c0 .012.007.02.017.024l.015-.002.201-.093.01-.008.004-.011.017-.43-.003-.012-.01-.01-.184-.092Z"/><path fill="#09244B" d="M8.993 5.163c.169 1.423-.062 2.907-.576 4.239-.569 1.474-1.325 3.07-1.419 4.657-.079 1.337.224 2.919 1.032 4.002C8.915 19.247 10.368 20 11.967 20h1.512a5 5 0 0 0 4.983-4.585l.361-4.332A1 1 0 0 0 17.826 10H12.5a1.503 1.503 0 0 1-1.501-1.492c-.008-.97.053-2.167-.393-3.06-.4-.8-.774-.948-1.106-.948-.3 0-.54.393-.507.663ZM9.5 2.5c1.356 0 2.294.852 2.895 2.053.522 1.045.571 2.3.597 3.447h4.834a3 3 0 0 1 2.99 3.25l-.361 4.331A7 7 0 0 1 13.479 22h-1.512A6.937 6.937 0 0 1 6.9 19.822 5.54 5.54 0 0 1 5.5 20c-1.108 0-2.028-.62-2.624-1.608C2.296 17.432 2 16.107 2 14.5c0-1.606.297-2.931.876-3.891C3.472 9.62 4.392 9 5.5 9c.281 0 .579.05.877.134.458-1.2.784-2.437.63-3.735C6.835 3.954 8.016 2.5 9.5 2.5Zm-3.804 8.524c-.485-.1-.865.216-1.107.618C4.263 12.182 4 13.106 4 14.5c0 1.394.263 2.319.588 2.859.31.512.64.641.912.641.064 0 .127-.002.19-.005-.536-1.208-.766-2.74-.688-4.054.047-.805.361-1.918.694-2.917Z"/></g></svg>
